X:1
T:Long scale
C:Unknown
M:4/4
L:1/4
Q:120
K:C
C D E F | G A B c | 
c d e f g a b c' | 
c' d' e' f' g' a' b' c'' | 
c'' d'' e'' f'' g'' a'' b'' c''' | 
c''' d''' e''' f''' g''' a''' b''' c'''' | 

C B, A, G, F, E, D, C,| 
C, B,, A,, G,, F,, E,, D,, C,, | 
C,, B,,, A,,, G,,, F,,, E,,, D,,, C,,, |] 